X: 39955
T: Thrashing Of The Oats, The
R: polka
M: 2/4
K: Gmajor
G2 AB|cA dB|G2 AB|cA FD|
G2 AB|cA d>e|fd cA|1 G2 GD:|2 G2 Gd||
|:g2 ag|fd d>g|fd dg|fd cA|
gf/g/ ag|fd d>e|fd cA|1 G2 Gd:|2 G2 GD||

